_inc/images/help-launch-arcade.svg

<svg viewBox="0 0 91 19" xmlns="http://www.w3.org/2000/svg"><path d="m24 15.85v-12.6h2.3v10.55h5.18v2.05zm16.57 0-1.04-2.99h-4.59l-1.04 2.99h-2.24l4.49-12.6h2.17l4.49 12.6zm-4.91-5h3.15l-1.57-4.5zm13.354 5.25c-1.727 0-3.027-.5-3.9-1.5-.88-1-1.32-2.383-1.32-4.15v-7.2h2.31v6.61c0 .873.076 1.6.23 2.18.153.587.443 1.04.87 1.36.426.327 1.03.49 1.81.49.78 0 1.383-.163 1.81-.49.426-.32.716-.773.87-1.36.16-.58.24-1.307.24-2.18v-6.61h2.3v7.2c0 1.767-.437 3.15-1.31 4.15-.88 1-2.184 1.5-3.91 1.5zm7.854-.25v-12.6h2.26l5.39 8.14v-8.14h2.3v12.6h-1.89l-5.76-8.64v8.64zm18.425.25c-1.273 0-2.396-.27-3.37-.81-.98-.54-1.74-1.303-2.28-2.29-.54-.993-.81-2.143-.81-3.45 0-1.293.28-2.437.84-3.43.554-.987 1.327-1.753 2.32-2.3.987-.547 2.11-.82 3.37-.82 1.214 0 2.3.247 3.26.74l-.25 2.19c-.513-.227-1.006-.403-1.48-.53-.48-.127-.993-.19-1.54-.19-1.286 0-2.273.397-2.96 1.19-.693.793-1.04 1.843-1.04 3.15 0 1.307.34 2.357 1.02 3.15.674.793 1.647 1.19 2.92 1.19.567 0 1.087-.06 1.56-.18.474-.12.98-.3 1.52-.54l.25 2.19c-1.04.493-2.15.74-3.33.74zm5.262-.25v-12.6h2.3v4.99h5.76v-4.99h2.3v12.6h-2.3v-5.45h-5.76v5.45z" fill="#666"/><g stroke="#666"><ellipse cx="6.101" cy="5.323" fill="none" rx="2.5" ry="2.5" transform="matrix(1 0 -.000001 1 3.398841 1.177)"/><ellipse cx="6.101" cy="5.323" fill="#666" fill-rule="evenodd" rx="2.5" ry="2.5" transform="matrix(1 0 -.000001 1 -3.100992 1.177)"/><ellipse cx="6.101" cy="5.323" fill="none" rx="2.5" ry="2.5" transform="matrix(1 0 -.000002 1 9.898857 1.177)"/><ellipse cx="6.101" cy="5.323" fill="none" rx="2.5" ry="2.5" transform="matrix(1 0 -.000001 1 3.398839 7.677333)"/><ellipse cx="6.101" cy="5.323" fill="none" rx="2.5" ry="2.5" transform="matrix(1 0 -.000001 1 -3.100992 7.677333)"/><ellipse cx="6.101" cy="5.323" fill="none" rx="2.5" ry="2.5" transform="matrix(1 0 -.000002 1 9.898869 7.677333)"/></g></svg>

<?xml version="1.0" encoding="utf-8"?>
<svg viewBox="0 0 91 19" xmlns="http://www.w3.org/2000/svg" xmlns:bx="https://boxy-svg.com">
  <path d="M 24 15.85 L 24 3.25 L 26.3 3.25 L 26.3 13.8 L 31.48 13.8 L 31.48 15.85 L 24 15.85 Z M 40.57 15.85 L 39.53 12.86 L 34.94 12.86 L 33.9 15.85 L 31.66 15.85 L 36.15 3.25 L 38.32 3.25 L 42.81 15.85 L 40.57 15.85 Z M 35.66 10.85 L 38.81 10.85 L 37.24 6.35 L 35.66 10.85 Z M 49.014 16.1 L 49.014 16.1 C 47.287 16.1 45.987 15.6 45.114 14.6 L 45.114 14.6 L 45.114 14.6 C 44.234 13.6 43.794 12.217 43.794 10.45 L 43.794 10.45 L 43.794 3.25 L 46.104 3.25 L 46.104 9.86 L 46.104 9.86 C 46.104 10.733 46.18 11.46 46.334 12.04 L 46.334 12.04 L 46.334 12.04 C 46.487 12.627 46.777 13.08 47.204 13.4 L 47.204 13.4 L 47.204 13.4 C 47.63 13.727 48.234 13.89 49.014 13.89 L 49.014 13.89 L 49.014 13.89 C 49.794 13.89 50.397 13.727 50.824 13.4 L 50.824 13.4 L 50.824 13.4 C 51.25 13.08 51.54 12.627 51.694 12.04 L 51.694 12.04 L 51.694 12.04 C 51.854 11.46 51.934 10.733 51.934 9.86 L 51.934 9.86 L 51.934 3.25 L 54.234 3.25 L 54.234 10.45 L 54.234 10.45 C 54.234 12.217 53.797 13.6 52.924 14.6 L 52.924 14.6 L 52.924 14.6 C 52.044 15.6 50.74 16.1 49.014 16.1 L 49.014 16.1 Z M 56.868 15.85 L 56.868 3.25 L 59.128 3.25 L 64.518 11.39 L 64.518 3.25 L 66.818 3.25 L 66.818 15.85 L 64.928 15.85 L 59.168 7.21 L 59.168 15.85 L 56.868 15.85 Z M 75.293 16.1 L 75.293 16.1 C 74.02 16.1 72.897 15.83 71.923 15.29 L 71.923 15.29 L 71.923 15.29 C 70.943 14.75 70.183 13.987 69.643 13 L 69.643 13 L 69.643 13 C 69.103 12.007 68.833 10.857 68.833 9.55 L 68.833 9.55 L 68.833 9.55 C 68.833 8.257 69.113 7.113 69.673 6.12 L 69.673 6.12 L 69.673 6.12 C 70.227 5.133 71 4.367 71.993 3.82 L 71.993 3.82 L 71.993 3.82 C 72.98 3.273 74.103 3 75.363 3 L 75.363 3 L 75.363 3 C 76.577 3 77.663 3.247 78.623 3.74 L 78.623 3.74 L 78.373 5.93 L 78.373 5.93 C 77.86 5.703 77.367 5.527 76.893 5.4 L 76.893 5.4 L 76.893 5.4 C 76.413 5.273 75.9 5.21 75.353 5.21 L 75.353 5.21 L 75.353 5.21 C 74.067 5.21 73.08 5.607 72.393 6.4 L 72.393 6.4 L 72.393 6.4 C 71.7 7.193 71.353 8.243 71.353 9.55 L 71.353 9.55 L 71.353 9.55 C 71.353 10.857 71.693 11.907 72.373 12.7 L 72.373 12.7 L 72.373 12.7 C 73.047 13.493 74.02 13.89 75.293 13.89 L 75.293 13.89 L 75.293 13.89 C 75.86 13.89 76.38 13.83 76.853 13.71 L 76.853 13.71 L 76.853 13.71 C 77.327 13.59 77.833 13.41 78.373 13.17 L 78.373 13.17 L 78.623 15.36 L 78.623 15.36 C 77.583 15.853 76.473 16.1 75.293 16.1 L 75.293 16.1 Z M 80.555 15.85 L 80.555 3.25 L 82.855 3.25 L 82.855 8.24 L 88.615 8.24 L 88.615 3.25 L 90.915 3.25 L 90.915 15.85 L 88.615 15.85 L 88.615 10.4 L 82.855 10.4 L 82.855 15.85 L 80.555 15.85 Z" style="fill: rgb(102, 102, 102); white-space: pre;"/>
  <ellipse style="paint-order: stroke; stroke: rgb(102, 102, 102); fill: none;" transform="matrix(1, 0, -0.000001, 1, 3.398841, 1.177)" cx="6.101" cy="5.323" rx="2.5" ry="2.5" bx:origin="0.5 2.208"/>
  <ellipse style="stroke: rgb(102, 102, 102); fill-rule: evenodd; fill: rgb(102, 102, 102);" transform="matrix(1, 0, -0.000001, 1, -3.100992, 1.177)" cx="6.101" cy="5.323" rx="2.5" ry="2.5" bx:origin="0.5 2.208"/>
  <ellipse style="stroke: rgb(102, 102, 102); fill: none;" transform="matrix(1, 0, -0.000002, 1, 9.898857, 1.177)" cx="6.101" cy="5.323" rx="2.5" ry="2.5" bx:origin="0.5 2.208"/>
  <ellipse style="paint-order: stroke; stroke: rgb(102, 102, 102); fill: none;" transform="matrix(1, 0, -0.000001, 1, 3.398839, 7.677333)" cx="6.101" cy="5.323" rx="2.5" ry="2.5" bx:origin="0.5 2.208"/>
  <ellipse style="stroke: rgb(102, 102, 102); fill-rule: evenodd; fill: none;" transform="matrix(1, 0, -0.000001, 1, -3.100992, 7.677333)" cx="6.101" cy="5.323" rx="2.5" ry="2.5" bx:origin="0.5 2.208"/>
  <ellipse style="stroke: rgb(102, 102, 102); fill: none;" transform="matrix(1, 0, -0.000002, 1, 9.898869, 7.677333)" cx="6.101" cy="5.323" rx="2.5" ry="2.5" bx:origin="0.5 2.208"/>
</svg>
